!!!OTL: Schifferlied zur Arbeit.
!!!OTL-incipit: HISS EM UP
!!!ARE: Europa, Mitteleuropa, Deutschland, Helgoland
!!!SCT: Z1300
!!!YEM: Copyright 1995, estate of Helmut Schaffrath.
**kern	**text
*ICvox	*
*M2/4	*
*k[f#]	*
*G:	*
=1	=1
!LO:TX:a:t=Von Helgoland.	!
{8b/	Hiß
8a	em
8g	up
8f#	hu-
=2	=2
4g	-ro
8e	hol-
8e}	-lei!
=3	=3
{8a	häv
8a	em
8a	up
8a	hu-
=4	=4
4a	-ro!
8d	jol-
8d}	-ley
=5	=5
{8g	his
8a	em
8b/	up
(16a/L	hu-
16ccJ)	.
=6	=6
4b/	-ro
8a	jol-
(16bL	-ley
16ddJ)	.
=7	=7
4cc	ho-
4b}	-ho!
=8	=8
{16cc	häv
16b	em
16a	for-
16g	-te
4a	Kraun
=9	=9
8d	jol-
8d	-lei!
4r}	.
=10	=10
{8b/	hol
8a	em
8g	up
8f#	hu-
=11	=11
4g	-ro!
4r}	.
==	==
!!!AGN: Handwerker -, Bauern - Lied, Brauchtums - Lied, bei der Arbeit
!!!ONB: ESAC (Essen Associative Code) Database: ZUCCAL
!!!AMT: simple duple
!!!AIN: vox
!!!EED: Helmut Schaffrath
!!!EEV: 1.0
!!!GTL: VII. Jagd-, Bunkt- und GewerksLieder.
!!!URL-scan: https://www.digitale-sammlungen.de/de/view/bsb11160573?page=546
!!!ENC: Anna Maria Matuszewska
!!!EEV: 2025/02/07
*-	*-
